X:1
T:Binorie
M:4/4
L:1/4
K:C
 G| E C E/2E/2 G| c2 dc/2-B/2| A3/2 G/2 E c| A3| B| c C D E| E3/2 G/2 B A|\
 G3/2 F/2 D E| C3||
